X:313
T: Christus, mein Leben!
N: A0658
O: Europa, Mitteleuropa, Deutschland
N: Vulpius' Gsgb 1609
R: Romanze, Ballade, Lied, religioeses Lied
M: 4/2
L: 1/4
K: F
F2 | A2G2A2B2 | c4A2
d2 | c3BA2G2 | A4z2
c2 | d2e2f2e2 | d4c2
A2 | G2F2F2E2 | F6

